svg/remove-folder.svg

<?xml version="1.0" encoding="UTF-8"?>
<svg xmlns="http://www.w3.org/2000/svg" xmlns:xlink="http://www.w3.org/1999/xlink" width="32" height="32" viewBox="0 0 32 32">
<path fill-rule="nonzero" fill="rgb(0%, 0%, 0%)" fill-opacity="1" d="M 3.199219 1.921875 C 2.140625 1.921875 1.28125 2.78125 1.28125 3.839844 L 1.28125 7.679688 L 30.71875 7.679688 L 30.71875 6.398438 C 30.71875 5.339844 29.859375 4.480469 28.800781 4.480469 L 11.546875 4.484375 C 11.371094 4.417969 11 3.832031 10.800781 3.515625 C 10.3125 2.730469 9.804688 1.921875 8.960938 1.921875 Z M 1.921875 8.960938 C 1.75 8.960938 1.585938 9.027344 1.46875 9.148438 C 1.347656 9.265625 1.277344 9.429688 1.28125 9.601562 L 1.28125 26.878906 C 1.28125 27.9375 2.140625 28.800781 3.199219 28.800781 L 20.070312 28.800781 C 21.179688 30.707031 23.246094 32 25.601562 32 C 29.121094 32 32 29.121094 32 25.601562 C 32 24.171875 31.519531 22.851562 30.71875 21.785156 L 30.71875 9.601562 C 30.71875 9.25 30.433594 8.960938 30.078125 8.960938 Z M 25.601562 20.480469 C 28.414062 20.480469 30.71875 22.785156 30.71875 25.601562 C 30.71875 28.414062 28.414062 30.71875 25.601562 30.71875 C 22.785156 30.71875 20.480469 28.414062 20.480469 25.601562 C 20.480469 22.785156 22.785156 20.480469 25.601562 20.480469 M 23.359375 22.71875 C 23.191406 22.71875 23.027344 22.785156 22.914062 22.910156 C 22.789062 23.027344 22.71875 23.1875 22.71875 23.359375 C 22.71875 23.527344 22.789062 23.691406 22.914062 23.808594 L 24.703125 25.601562 L 22.914062 27.390625 C 22.789062 27.503906 22.714844 27.667969 22.71875 27.839844 C 22.71875 28.007812 22.789062 28.171875 22.914062 28.285156 C 23.03125 28.402344 23.191406 28.46875 23.359375 28.476562 C 23.488281 28.476562 23.679688 28.410156 23.808594 28.289062 L 25.601562 26.492188 L 27.390625 28.285156 C 27.519531 28.410156 27.710938 28.476562 27.839844 28.476562 C 27.96875 28.476562 28.160156 28.410156 28.289062 28.289062 C 28.410156 28.167969 28.480469 28.007812 28.480469 27.835938 C 28.480469 27.667969 28.410156 27.503906 28.289062 27.386719 L 26.496094 25.601562 L 28.289062 23.808594 C 28.410156 23.691406 28.476562 23.527344 28.480469 23.359375 C 28.476562 23.1875 28.410156 23.027344 28.289062 22.910156 C 28.171875 22.785156 28.007812 22.71875 27.839844 22.71875 C 27.671875 22.71875 27.507812 22.785156 27.390625 22.910156 L 25.601562 24.703125 L 23.808594 22.910156 C 23.691406 22.789062 23.527344 22.71875 23.359375 22.71875 M 23.359375 22.71875 "/>
</svg>

<svg role="img" viewBox="0 0 32 32" xmlns="http://www.w3.org/2000/svg"><path d="M3.2 1.922A1.92 1.92 0 0 0 1.281 3.84v3.84H30.72V6.398a1.92 1.92 0 0 0-1.918-1.918l-17.254.004c-.176-.066-.547-.652-.746-.968-.489-.786-.996-1.594-1.84-1.594ZM1.921 8.96a.63.63 0 0 0-.453.187.6.6 0 0 0-.188.454v17.277c0 1.058.86 1.922 1.918 1.922H20.07c1.11 1.907 3.176 3.2 5.532 3.2C29.122 32 32 29.121 32 25.602c0-1.43-.48-2.75-1.281-3.817V9.602a.64.64 0 0 0-.64-.641Zm23.68 11.52c2.812 0 5.117 2.304 5.117 5.12 0 2.813-2.305 5.118-5.117 5.118-2.817 0-5.122-2.305-5.122-5.117 0-2.817 2.305-5.122 5.122-5.122m-2.243 2.239a.6.6 0 0 0-.445.191.61.61 0 0 0 0 .899l1.79 1.793-1.79 1.789a.6.6 0 0 0-.195.449c0 .168.07.332.195.445a.67.67 0 0 0 .445.192c.13 0 .32-.067.45-.188l1.793-1.797 1.789 1.793c.129.125.32.192.449.192s.32-.067.45-.188a.63.63 0 0 0 0-.902l-1.794-1.785 1.793-1.793a.65.65 0 0 0 .191-.45.64.64 0 0 0-.19-.449.6.6 0 0 0-.45-.191.6.6 0 0 0-.45.191l-1.788 1.793-1.793-1.793a.63.63 0 0 0-.45-.191m0 0" fill="rgb(0%, 0%, 0%)"/></svg>
